X:262
T:Sugar Shack
M:2/2
C:© Paul Gitlitz 2011
K:D
"D"af de |"Bm"fd BA| "D"F2A2 |"Bm"DE FB|"D"AF AB |"A7"cd Bc |Ac eb|!
"D"af de |"Bm"fd BA| "D"F2A2 |DE FD|"G"GF GF |"A"EF ED |"F#m"CA, B,C |"D"D4:|!
|:"D"AB dB |AB dB |AB de |f2 ef|"Em"gf ef  |gf ef|"G"ga ^gb |"A7"a4|!
"D"AB dB |AB dB |AB de |f2 ef|"Em"gf ef |"A"ed cB|"F#m"AB c2 |"D"d4:|
